src/assets/icons/filters/categories/t-shirt.svg

<svg width="48" height="45" viewBox="0 0 48 45" fill="none" xmlns="http://www.w3.org/2000/svg">
<path fill-rule="evenodd" clip-rule="evenodd" d="M46.2208 6.22076L34.2839 0.333037C33.8683 0.127506 33.4131 0.0143622 32.9496 0.00137418C32.486 -0.0116138 32.0252 0.0758624 31.5987 0.257796C30.7052 0.637143 30.0312 1.39114 29.7459 2.32383C28.9887 4.80213 26.6264 6.5327 24.0008 6.5327C21.3736 6.5327 19.0113 4.80213 18.2541 2.32383C18.1151 1.86494 17.8772 1.44212 17.557 1.08515C17.2369 0.72819 16.8424 0.445772 16.4013 0.257796C15.9751 0.0757906 15.5145 -0.0117283 15.0512 0.00126056C14.588 0.0142494 14.133 0.127437 13.7176 0.333037L1.78074 6.21763C1.24669 6.4755 0.796259 6.87886 0.481245 7.38133C0.16623 7.8838 -0.000578351 8.46498 1.50663e-06 9.05803V20.7379C1.50663e-06 21.6941 0.429511 22.5876 1.17723 23.1926C1.54724 23.4916 1.97844 23.7055 2.4403 23.8193C2.90216 23.933 3.38339 23.9439 3.84991 23.851L7.23895 23.1832C7.27075 23.1772 7.30346 23.1782 7.33485 23.186C7.36624 23.1939 7.39556 23.2084 7.42079 23.2287C7.44595 23.2483 7.46615 23.2736 7.47977 23.3024C7.49338 23.3313 7.50003 23.363 7.49917 23.3949V41.823C7.49917 43.5755 8.94445 44.9989 10.7189 44.9989H37.2811C39.0555 44.9989 40.4993 43.5755 40.4993 41.823V23.3964C40.4986 23.3644 40.5055 23.3327 40.5194 23.3038C40.5333 23.2749 40.5538 23.2497 40.5792 23.2303C40.604 23.2093 40.6333 23.1941 40.6648 23.186C40.6962 23.1778 40.7292 23.1769 40.761 23.1832L44.1517 23.8526C44.6179 23.9452 45.0989 23.9342 45.5604 23.8205C46.022 23.7067 46.453 23.4929 46.8228 23.1942C47.5705 22.5891 48 21.6941 48 20.7394V9.06117C48 7.85102 47.3181 6.76157 46.2208 6.22076V6.22076Z" fill="#CFD8DC"/>
<path fill-rule="evenodd" clip-rule="evenodd" d="M44.9997 20.7394C45.0003 20.7713 44.9936 20.8029 44.98 20.8317C44.9664 20.8605 44.9463 20.8858 44.9213 20.9056C44.8964 20.9264 44.8671 20.9414 44.8357 20.9495C44.8042 20.9577 44.7714 20.9587 44.7395 20.9526L41.3489 20.2833C41.0689 20.2305 40.7832 20.2152 40.4993 20.2378V16.8895C40.498 16.694 40.4583 16.5005 40.3823 16.3203C40.3063 16.1401 40.1956 15.9767 40.0565 15.8393C39.9173 15.7018 39.7524 15.5932 39.5713 15.5195C39.3901 15.4458 39.1962 15.4085 39.0007 15.4097C38.805 15.4083 38.6109 15.4454 38.4296 15.519C38.2483 15.5926 38.0832 15.7013 37.9439 15.8387C37.8046 15.9761 37.6937 16.1397 37.6176 16.32C37.5416 16.5003 37.5018 16.6938 37.5005 16.8895V34.6436H10.4995V16.8895C10.4982 16.694 10.4585 16.5005 10.3825 16.3203C10.3065 16.1401 10.1958 15.9767 10.0567 15.8393C9.91749 15.7018 9.75264 15.5932 9.57149 15.5195C9.39034 15.4458 9.19645 15.4085 9.00088 15.4097C8.80519 15.4083 8.61113 15.4454 8.4298 15.519C8.24847 15.5926 8.08342 15.7013 7.9441 15.8387C7.80478 15.9761 7.69391 16.1397 7.61783 16.32C7.54176 16.5003 7.50197 16.6938 7.50074 16.8895V20.2378C7.42863 20.2347 7.35809 20.2221 7.28598 20.2221C7.07436 20.2221 6.86118 20.2409 6.64956 20.2833L3.26364 20.951C3.23198 20.9578 3.19921 20.9574 3.16774 20.9498C3.13627 20.9422 3.1069 20.9276 3.08181 20.9072C3.05613 20.8874 3.0354 20.862 3.02125 20.8329C3.0071 20.8038 2.99993 20.7718 3.0003 20.7394V9.0596C3.0003 8.97808 3.04732 8.90284 3.121 8.86679L15.0579 2.97907C15.0813 2.9661 15.1074 2.9589 15.1341 2.95808C15.1609 2.95726 15.1874 2.96285 15.2115 2.97436C15.2491 2.99004 15.3401 3.04177 15.3808 3.17814C16.5173 6.89638 20.0615 9.49067 24.0008 9.49067C27.9385 9.49067 31.4843 6.89638 32.6192 3.17814C32.6303 3.13365 32.6513 3.09223 32.6806 3.05696C32.7099 3.02168 32.7468 2.99345 32.7885 2.97436C32.8128 2.96245 32.8396 2.95665 32.8667 2.95747C32.8937 2.95829 32.9201 2.96571 32.9437 2.97907L44.8806 8.86835C44.9542 8.90441 44.9997 8.97809 44.9997 9.06117V20.7394V20.7394ZM37.2811 42.0409H10.7189C10.6902 42.0413 10.6618 42.036 10.6352 42.0253C10.6086 42.0146 10.5843 41.9988 10.5639 41.9786C10.5435 41.9585 10.5273 41.9345 10.5162 41.9081C10.5052 41.8816 10.4995 41.8532 10.4995 41.8246V37.6016H37.5005V41.8246C37.5005 41.8532 37.4948 41.8816 37.4838 41.9081C37.4727 41.9345 37.4565 41.9585 37.4361 41.9786C37.4157 41.9988 37.3914 42.0146 37.3648 42.0253C37.3382 42.036 37.3098 42.0413 37.2811 42.0409ZM46.2208 6.22233L34.2839 0.333037C33.8683 0.127506 33.4131 0.0143622 32.9496 0.00137418C32.486 -0.0116138 32.0252 0.0758624 31.5987 0.257796C30.7052 0.637143 30.0312 1.39114 29.7459 2.32383C28.9887 4.80213 26.6264 6.5327 24.0008 6.5327C21.3736 6.5327 19.0113 4.80213 18.2541 2.32383C18.1151 1.86494 17.8772 1.44212 17.557 1.08515C17.2369 0.72819 16.8424 0.445772 16.4013 0.257796C15.9751 0.0757906 15.5145 -0.0117283 15.0512 0.00126056C14.588 0.0142494 14.133 0.127437 13.7176 0.333037L1.78074 6.21763C1.24669 6.4755 0.796259 6.87886 0.481245 7.38133C0.16623 7.8838 -0.000578351 8.46498 1.50663e-06 9.05803V20.7379C1.50663e-06 21.6941 0.429511 22.5876 1.17723 23.1926C1.54724 23.4916 1.97844 23.7055 2.4403 23.8193C2.90216 23.933 3.38339 23.9439 3.84991 23.851L7.23895 23.1832C7.27075 23.1772 7.30346 23.1782 7.33485 23.186C7.36624 23.1939 7.39556 23.2084 7.42079 23.2287C7.44595 23.2483 7.46615 23.2736 7.47977 23.3024C7.49338 23.3313 7.50003 23.363 7.49917 23.3949V41.823C7.49917 43.5755 8.94445 44.9989 10.7189 44.9989H37.2811C39.0555 44.9989 40.4993 43.5755 40.4993 41.823V23.3964C40.4986 23.3644 40.5055 23.3327 40.5194 23.3038C40.5333 23.2749 40.5538 23.2497 40.5792 23.2303C40.604 23.2093 40.6333 23.1941 40.6648 23.186C40.6962 23.1778 40.7292 23.1769 40.761 23.1832L44.1517 23.8526C44.6179 23.9452 45.0989 23.9342 45.5604 23.8205C46.022 23.7067 46.453 23.4929 46.8228 23.1942C47.5705 22.5891 48 21.6941 48 20.7394V9.06117C48 7.85102 47.3181 6.76157 46.2208 6.22076V6.22233Z" fill="#253238"/>
<path fill-rule="evenodd" clip-rule="evenodd" d="M44.9999 20.7394C45.0005 20.7713 44.9938 20.8028 44.9802 20.8317C44.9666 20.8605 44.9465 20.8858 44.9215 20.9056C44.8966 20.9264 44.8673 20.9414 44.8359 20.9495C44.8044 20.9577 44.7716 20.9587 44.7397 20.9526L41.3491 20.2833C41.0691 20.2305 40.7834 20.2152 40.4995 20.2378V16.8895C40.4982 16.6939 40.4585 16.5005 40.3825 16.3203C40.3065 16.1401 40.1958 15.9767 40.0567 15.8392C39.9175 15.7018 39.7526 15.5932 39.5715 15.5195C39.3903 15.4458 39.1964 15.4085 39.0009 15.4097C38.8052 15.4083 38.6111 15.4454 38.4298 15.519C38.2485 15.5926 38.0834 15.7013 37.9441 15.8387C37.8048 15.9761 37.6939 16.1397 37.6178 16.32C37.5418 16.5003 37.502 16.6938 37.5007 16.8895V34.6436H10.4997V16.8895C10.4984 16.6939 10.4587 16.5005 10.3827 16.3203C10.3067 16.1401 10.196 15.9767 10.0569 15.8392C9.9177 15.7018 9.75284 15.5932 9.57169 15.5195C9.39054 15.4458 9.19665 15.4085 9.00109 15.4097C8.8054 15.4083 8.61134 15.4454 8.43 15.519C8.24867 15.5926 8.08363 15.7013 7.94431 15.8387C7.80498 15.9761 7.69411 16.1397 7.61804 16.32C7.54196 16.5003 7.50217 16.6938 7.50094 16.8895V20.2378C7.42883 20.2347 7.35829 20.2221 7.28619 20.2221C7.07457 20.2221 6.86138 20.2409 6.64976 20.2833L3.26385 20.951C3.23219 20.9578 3.19941 20.9574 3.16794 20.9498C3.13647 20.9422 3.10711 20.9276 3.08201 20.9071C3.05634 20.8874 3.03561 20.862 3.02146 20.8329C3.00731 20.8038 3.00014 20.7718 3.0005 20.7394V9.05958C3.0005 8.97807 3.04753 8.90283 3.1212 8.86677L15.0581 2.97905C15.0815 2.96608 15.1076 2.95889 15.1343 2.95807C15.1611 2.95725 15.1876 2.96283 15.2117 2.97435C15.2493 2.99002 15.3403 3.04175 15.381 3.17813C16.5175 6.89636 20.0617 9.49066 24.001 9.49066C27.9387 9.49066 31.4845 6.89636 32.6194 3.17813C32.6305 3.13364 32.6515 3.09222 32.6808 3.05694C32.7101 3.02167 32.747 2.99344 32.7887 2.97435C32.813 2.96244 32.8398 2.95664 32.8669 2.95746C32.8939 2.95828 32.9203 2.96569 32.9439 2.97905L44.8808 8.86834C44.9544 8.90439 44.9999 8.97807 44.9999 9.06115V20.7394V20.7394Z" fill="white" fill-opacity="0.5"/>
</svg>

<svg width="48" height="45" viewBox="0 0 48 45" fill="none" xmlns="http://www.w3.org/2000/svg"><path fill-rule="evenodd" clip-rule="evenodd" d="M46.22 6.22L34.285.334a3.213 3.213 0 00-2.685-.075 3.276 3.276 0 00-1.853 2.066c-.757 2.478-3.12 4.209-5.745 4.209-2.627 0-4.99-1.73-5.747-4.21A3.278 3.278 0 0016.401.259a3.209 3.209 0 00-2.683.075L1.78 6.218A3.15 3.15 0 000 9.058v11.68c0 .956.43 1.85 1.177 2.455a3.244 3.244 0 002.673.658l3.389-.668a.225.225 0 01.24.12c.014.028.021.06.02.092v18.428c0 1.752 1.445 3.176 3.22 3.176H37.28c1.775 0 3.218-1.424 3.218-3.176V23.396a.203.203 0 01.08-.166.216.216 0 01.182-.047l3.39.67a3.246 3.246 0 002.672-.659A3.148 3.148 0 0048 20.74V9.061c0-1.21-.682-2.3-1.78-2.84z" fill="#CFD8DC"/><path fill-rule="evenodd" clip-rule="evenodd" d="M45 20.74a.207.207 0 01-.079.166.219.219 0 01-.181.047l-3.391-.67a3.21 3.21 0 00-.85-.045V16.89a1.49 1.49 0 00-1.498-1.48 1.49 1.49 0 00-1.5 1.48v17.754H10.499V16.89a1.49 1.49 0 00-1.498-1.48 1.49 1.49 0 00-1.5 1.48v3.348c-.072-.003-.143-.016-.215-.016-.212 0-.425.019-.636.061l-3.386.668a.216.216 0 01-.182-.044A.21.21 0 013 20.74V9.06c0-.08.047-.156.121-.192l11.937-5.888a.168.168 0 01.153-.005.307.307 0 01.17.204c1.136 3.718 4.68 6.313 8.62 6.313 3.938 0 7.483-2.595 8.618-6.313a.305.305 0 01.17-.204.166.166 0 01.155.005L44.88 8.87c.073.035.119.11.119.192V20.74zm-7.719 21.3H10.72a.216.216 0 01-.22-.215v-4.223h27.002v4.223a.218.218 0 01-.136.2.216.216 0 01-.084.016zm8.94-35.818L34.284.333a3.213 3.213 0 00-2.685-.075 3.276 3.276 0 00-1.853 2.066c-.757 2.478-3.12 4.209-5.745 4.209-2.627 0-4.99-1.73-5.747-4.21A3.278 3.278 0 0016.401.259a3.209 3.209 0 00-2.683.075L1.78 6.218A3.15 3.15 0 000 9.058v11.68c0 .956.43 1.85 1.177 2.455a3.244 3.244 0 002.673.658l3.389-.668a.225.225 0 01.24.12c.014.028.021.06.02.092v18.428c0 1.752 1.445 3.176 3.22 3.176H37.28c1.775 0 3.218-1.424 3.218-3.176V23.396a.203.203 0 01.08-.166.216.216 0 01.182-.047l3.39.67a3.246 3.246 0 002.672-.659A3.148 3.148 0 0048 20.74V9.061c0-1.21-.682-2.3-1.78-2.84v.001z" fill="#253238"/><path fill-rule="evenodd" clip-rule="evenodd" d="M45 20.74a.207.207 0 01-.078.166.219.219 0 01-.182.047l-3.39-.67a3.21 3.21 0 00-.85-.045V16.89a1.49 1.49 0 00-1.5-1.48 1.49 1.49 0 00-1.5 1.48v17.754h-27V16.89A1.49 1.49 0 009 15.41a1.49 1.49 0 00-1.5 1.48v3.348c-.072-.003-.143-.016-.215-.016-.211 0-.425.019-.636.061l-3.386.668a.216.216 0 01-.182-.044.208.208 0 01-.081-.168V9.06c0-.08.047-.156.12-.192l11.937-5.888a.168.168 0 01.154-.005.307.307 0 01.169.204c1.136 3.718 4.68 6.313 8.62 6.313 3.938 0 7.483-2.595 8.618-6.313a.305.305 0 01.17-.204.166.166 0 01.155.005L44.88 8.87c.073.035.119.11.119.192V20.74z" fill="#fff" fill-opacity=".5"/></svg>
